X:320
T:Fine Times at Our House
L:1/8
M:2/2
Z:posted by Andrew Kuntz 1/01
S:James H. "Uncle Jim" Chisholm, Greenwood, Albermarle County, Va.
K:A Mixolyian
E2 E>D CD E2|EAA>A A>BcA|E2 E>D CDE>F|G>EAG F D3|
E2 E>D C>D E2|EA A2 ABcd|efgf e2d2|cABd c A3||
A,4 CD E2|EA A2 ABcA|EDCD E2F2|GEAG F D3|EDCD E2A2|
A2A2 ABcd|edcB Aagf|edcB c A3||
K:A Dorian
ed c2 (d//c)Bcd|efga gagf|ed c2 (d//cBcd|ea2b a2 gf|edcB ABcd|1
efga g2d2|efgf e2d2|^cABc c A3:|2 egfa g2d2|ed^cB Aagf|ed^cA c A3||
